X: 14601
T: Gan Ainm
R: barndance
M: 4/4
K: Dmajor
|:f2 d2 a2 d2|ed eg f2 de|f2 ed a2 de|fd ec d2 d2:|
|:f2 de f2 de|f2 g2 e2 a2|a2 d2 a2 d2|ed eg f2 de|
fA de fA de|f2 g2 e2 a2|a2 d2 a2 de|fd ec d2 d2:|

